flaticon/seo-and-analytics/browser-17.svg

<svg xmlns="http://www.w3.org/2000/svg" width="32" height="32" viewBox="0 0 24 24">
    <path d="M2.800781 1.199219C1.921875 1.199219 1.199219 1.921875 1.199219 2.800781 1.199219 3.679688 1.921875 4.398438 2.800781 4.398438 3.679688 4.398438 4.398438 3.679688 4.398438 2.800781 4.398438 1.921875 3.679688 1.199219 2.800781 1.199219zM2.800781 3.601562C2.359375 3.601562 2 3.238281 2 2.800781 2 2.359375 2.359375 2 2.800781 2 3.238281 2 3.601562 2.359375 3.601562 2.800781 3.601562 3.238281 3.238281 3.601562 2.800781 3.601562zM6.398438 1.199219C5.519531 1.199219 4.800781 1.921875 4.800781 2.800781 4.800781 3.679688 5.519531 4.398438 6.398438 4.398438 7.28125 4.398438 8 3.679688 8 2.800781 8 1.921875 7.28125 1.199219 6.398438 1.199219zM6.398438 3.601562C5.960938 3.601562 5.601562 3.238281 5.601562 2.800781 5.601562 2.359375 5.960938 2 6.398438 2 6.839844 2 7.199219 2.359375 7.199219 2.800781 7.199219 3.238281 6.839844 3.601562 6.398438 3.601562zM10 1.199219C9.121094 1.199219 8.398438 1.921875 8.398438 2.800781 8.398438 3.679688 9.121094 4.398438 10 4.398438 10.878906 4.398438 11.601562 3.679688 11.601562 2.800781 11.601562 1.921875 10.878906 1.199219 10 1.199219zM10 3.601562C9.558594 3.601562 9.199219 3.238281 9.199219 2.800781 9.199219 2.359375 9.558594 2 10 2 10.441406 2 10.800781 2.359375 10.800781 2.800781 10.800781 3.238281 10.441406 3.601562 10 3.601562zM10 3.601562"/>
    <path d="M 22.878906 0 L 1.160156 0 C 0.519531 0 0 0.519531 0 1.160156 L 0 22.878906 C 0 23.519531 0.480469 24 1.121094 24 L 22.878906 24 C 23.519531 24 24 23.519531 24 22.878906 L 24 1.160156 C 24 0.519531 23.480469 0 22.878906 0 Z M 1.28125 23.199219 C 1 23.199219 0.800781 23 0.800781 22.71875 L 0.800781 17.601562 L 11.601562 17.601562 L 11.601562 23.199219 Z M 12.398438 23.199219 L 12.398438 17.601562 L 23.199219 17.601562 L 23.199219 22.71875 C 23.199219 23 23 23.199219 22.71875 23.199219 Z M 23.199219 16.800781 L 0.800781 16.800781 L 0.800781 5.601562 L 23.199219 5.601562 Z M 0.800781 4.800781 L 0.800781 1.160156 C 0.800781 0.960938 0.960938 0.800781 1.160156 0.800781 L 22.839844 0.800781 C 23.039062 0.800781 23.199219 0.960938 23.199219 1.160156 L 23.199219 4.800781 Z M 0.800781 4.800781"/>
    <path d="M6.28125 18.921875C6.121094 18.761719 5.878906 18.761719 5.71875 18.921875L3.71875 20.921875C3.558594 21.078125 3.558594 21.320312 3.71875 21.480469 3.800781 21.558594 3.878906 21.601562 4 21.601562 4.121094 21.601562 4.199219 21.558594 4.28125 21.480469L6 19.761719 7.71875 21.480469C7.800781 21.558594 7.878906 21.601562 8 21.601562 8.121094 21.601562 8.199219 21.558594 8.28125 21.480469 8.441406 21.320312 8.441406 21.078125 8.28125 20.921875zM19.71875 18.921875L18 20.640625 16.28125 18.921875C16.121094 18.761719 15.878906 18.761719 15.71875 18.921875 15.558594 19.078125 15.558594 19.320312 15.71875 19.480469L17.71875 21.480469C17.800781 21.558594 17.878906 21.601562 18 21.601562 18.121094 21.601562 18.199219 21.558594 18.28125 21.480469L20.28125 19.480469C20.441406 19.320312 20.441406 19.078125 20.28125 18.921875 20.121094 18.761719 19.878906 18.761719 19.71875 18.921875zM4 7.601562L6 7.601562C6.238281 7.601562 6.398438 7.441406 6.398438 7.199219 6.398438 6.960938 6.238281 6.800781 6 6.800781L4 6.800781C3.761719 6.800781 3.601562 6.960938 3.601562 7.199219 3.601562 7.441406 3.761719 7.601562 4 7.601562zM2 7.601562L2.398438 7.601562C2.640625 7.601562 2.800781 7.441406 2.800781 7.199219 2.800781 6.960938 2.640625 6.800781 2.398438 6.800781L2 6.800781C1.761719 6.800781 1.601562 6.960938 1.601562 7.199219 1.601562 7.441406 1.761719 7.601562 2 7.601562zM2 9.199219L3.601562 9.199219C3.839844 9.199219 4 9.039062 4 8.800781 4 8.558594 3.839844 8.398438 3.601562 8.398438L2 8.398438C1.761719 8.398438 1.601562 8.558594 1.601562 8.800781 1.601562 9.039062 1.761719 9.199219 2 9.199219zM6 8.398438L5.199219 8.398438C4.960938 8.398438 4.800781 8.558594 4.800781 8.800781 4.800781 9.039062 4.960938 9.199219 5.199219 9.199219L6 9.199219C6.238281 9.199219 6.398438 9.039062 6.398438 8.800781 6.398438 8.558594 6.238281 8.398438 6 8.398438zM19.601562 13.601562C19.601562 13.839844 19.761719 14 20 14L22 14C22.238281 14 22.398438 13.839844 22.398438 13.601562 22.398438 13.359375 22.238281 13.199219 22 13.199219L20 13.199219C19.761719 13.199219 19.601562 13.359375 19.601562 13.601562zM18 14L18.398438 14C18.640625 14 18.800781 13.839844 18.800781 13.601562 18.800781 13.359375 18.640625 13.199219 18.398438 13.199219L18 13.199219C17.761719 13.199219 17.601562 13.359375 17.601562 13.601562 17.601562 13.839844 17.761719 14 18 14zM18 15.601562L19.601562 15.601562C19.839844 15.601562 20 15.441406 20 15.199219 20 14.960938 19.839844 14.800781 19.601562 14.800781L18 14.800781C17.761719 14.800781 17.601562 14.960938 17.601562 15.199219 17.601562 15.441406 17.761719 15.601562 18 15.601562zM22 14.800781L21.199219 14.800781C20.960938 14.800781 20.800781 14.960938 20.800781 15.199219 20.800781 15.441406 20.960938 15.601562 21.199219 15.601562L22 15.601562C22.238281 15.601562 22.398438 15.441406 22.398438 15.199219 22.398438 14.960938 22.238281 14.800781 22 14.800781zM9.121094 15.601562L14.878906 15.601562C15.28125 15.601562 15.601562 15.28125 15.640625 14.921875L15.640625 7.519531C15.640625 7.121094 15.320312 6.800781 14.921875 6.800781L9.121094 6.800781C8.71875 6.800781 8.398438 7.121094 8.398438 7.519531L8.398438 14.878906C8.398438 15.28125 8.71875 15.601562 9.121094 15.601562zM9.199219 7.601562L14.800781 7.601562 14.800781 8.800781 9.199219 8.800781zM14.800781 9.601562L14.800781 14.800781 9.199219 14.800781 9.199219 9.601562zM14.800781 9.601562"/>
    <path d="M10.679688 14L13.320312 14C13.679688 14 14 13.679688 14 13.320312L14 12.28125C14 11.921875 13.679688 11.601562 13.320312 11.601562L10.679688 11.601562C10.320312 11.601562 10 11.921875 10 12.28125L10 13.320312C10 13.679688 10.320312 14 10.679688 14zM10.800781 12.398438L13.199219 12.398438 13.199219 13.199219 10.800781 13.199219zM18.800781 8.800781L19.601562 8.800781 19.601562 9.601562C19.601562 9.839844 19.761719 10 20 10 20.238281 10 20.398438 9.839844 20.398438 9.601562L20.398438 8.800781 21.199219 8.800781C21.441406 8.800781 21.601562 8.640625 21.601562 8.398438 21.601562 8.160156 21.441406 8 21.199219 8L20.398438 8 20.398438 7.199219C20.398438 6.960938 20.238281 6.800781 20 6.800781 19.761719 6.800781 19.601562 6.960938 19.601562 7.199219L19.601562 8 18.800781 8C18.558594 8 18.398438 8.160156 18.398438 8.398438 18.398438 8.640625 18.558594 8.800781 18.800781 8.800781zM5.480469 12.519531C5.320312 12.359375 5.078125 12.359375 4.921875 12.519531L4 13.441406 3.078125 12.519531C2.921875 12.359375 2.679688 12.359375 2.519531 12.519531 2.359375 12.679688 2.359375 12.921875 2.519531 13.078125L3.441406 14 2.519531 14.921875C2.359375 15.078125 2.359375 15.320312 2.519531 15.480469 2.601562 15.558594 2.679688 15.601562 2.800781 15.601562 2.921875 15.601562 3 15.558594 3.078125 15.480469L4 14.558594 4.921875 15.480469C5 15.558594 5.078125 15.601562 5.199219 15.601562 5.320312 15.601562 5.398438 15.558594 5.480469 15.480469 5.640625 15.320312 5.640625 15.078125 5.480469 14.921875L4.558594 14 5.480469 13.078125C5.640625 12.921875 5.640625 12.679688 5.480469 12.519531zM5.480469 12.519531"/>
</svg>

<svg xmlns="http://www.w3.org/2000/svg" width="32" height="32" viewBox="0 0 24 24">
    <path d="M2.8 1.2c-.878 0-1.6.722-1.6 1.6 0 .88.722 1.598 1.6 1.598.88 0 1.598-.718 1.598-1.597 0-.88-.718-1.602-1.597-1.602zm0 2.402A.804.804 0 0 1 2 2.8C2 2.359 2.36 2 2.8 2c.438 0 .802.36.802.8 0 .438-.364.802-.801.802zm0 0M6.398 1.2c-.878 0-1.597.722-1.597 1.6 0 .88.719 1.598 1.597 1.598C7.281 4.398 8 3.68 8 2.801c0-.88-.719-1.602-1.602-1.602zm0 2.402a.801.801 0 0 1 0-1.602c.442 0 .801.36.801.8 0 .438-.36.802-.8.802zm0 0M10 1.2c-.879 0-1.602.722-1.602 1.6 0 .88.723 1.598 1.602 1.598.879 0 1.602-.718 1.602-1.597 0-.88-.723-1.602-1.602-1.602zm0 2.402a.804.804 0 0 1-.8-.801.802.802 0 0 1 1.6 0c0 .437-.359.8-.8.8zm0 0"/>
    <path d="M22.879 0H1.16C.52 0 0 .52 0 1.16V22.88C0 23.519.48 24 1.121 24H22.88c.64 0 1.121-.48 1.121-1.121V1.16C24 .52 23.48 0 22.879 0zM1.28 23.2c-.281 0-.48-.2-.48-.481v-5.117h10.8v5.597zm11.117 0v-5.598H23.2v5.117c0 .281-.199.48-.48.48zM23.2 16.8H.801V5.603h22.398zM.801 4.8V1.16C.8.96.96.8 1.16.8H22.84c.2 0 .36.16.36.36V4.8zm0 0"/>
    <path d="M6.281 18.922a.39.39 0 0 0-.562 0l-2 2a.385.385 0 0 0 0 .558c.082.079.16.122.281.122.121 0 .2-.043.281-.122L6 19.762l1.719 1.718c.082.079.16.122.281.122.121 0 .2-.043.281-.122a.385.385 0 0 0 0-.558zm0 0M19.719 18.922L18 20.64l-1.719-1.72a.39.39 0 0 0-.562 0 .385.385 0 0 0 0 .56l2 2c.082.078.16.12.281.12.121 0 .2-.042.281-.12l2-2a.385.385 0 0 0 0-.56.39.39 0 0 0-.562 0zm0 0M4 7.602h2c.238 0 .398-.16.398-.403 0-.238-.16-.398-.398-.398H4c-.238 0-.398.16-.398.398 0 .242.16.403.398.403zm0 0M2 7.602h.398c.243 0 .403-.16.403-.403 0-.238-.16-.398-.403-.398H2c-.238 0-.398.16-.398.398 0 .242.16.403.398.403zm0 0M2 9.2h1.602C3.84 9.2 4 9.04 4 8.8c0-.241-.16-.402-.398-.402H2c-.238 0-.398.16-.398.403 0 .238.16.398.398.398zm0 0M6 8.398h-.8c-.24 0-.4.16-.4.403 0 .238.16.398.4.398H6c.238 0 .398-.16.398-.398 0-.242-.16-.403-.398-.403zm0 0M19.602 13.602c0 .238.16.398.398.398h2c.238 0 .398-.16.398-.398 0-.243-.16-.403-.398-.403h-2c-.238 0-.398.16-.398.403zm0 0M18 14h.398c.243 0 .403-.16.403-.398 0-.243-.16-.403-.403-.403H18c-.238 0-.398.16-.398.403 0 .238.16.398.398.398zm0 0M18 15.602h1.602c.238 0 .398-.16.398-.403 0-.238-.16-.398-.398-.398H18c-.238 0-.398.16-.398.398 0 .242.16.403.398.403zm0 0M22 14.8h-.8c-.24 0-.4.16-.4.4 0 .241.16.402.4.402h.8c.238 0 .398-.16.398-.403 0-.238-.16-.398-.398-.398zm0 0M9.121 15.602h5.758c.402 0 .723-.32.762-.68V7.52a.717.717 0 0 0-.72-.72h-5.8a.718.718 0 0 0-.723.72v7.359c0 .402.32.723.723.723zm.078-8h5.602V8.8H9.199zm5.602 2V14.8H9.199V9.6zm0 0"/>
    <path d="M10.68 14h2.64c.36 0 .68-.32.68-.68v-1.039c0-.36-.32-.68-.68-.68h-2.64c-.36 0-.68.32-.68.68v1.04c0 .359.32.679.68.679zm.12-1.602h2.4v.801h-2.4zm0 0M18.8 8.8h.802v.802c0 .238.16.398.398.398.238 0 .398-.16.398-.398V8.8h.801c.242 0 .403-.16.403-.403 0-.238-.16-.398-.403-.398h-.8v-.8c0-.24-.16-.4-.399-.4-.238 0-.398.16-.398.4V8H18.8c-.242 0-.403.16-.403.398 0 .243.16.403.403.403zm0 0M5.48 12.52a.385.385 0 0 0-.558 0L4 13.44l-.922-.921a.385.385 0 0 0-.558 0 .385.385 0 0 0 0 .558L3.44 14l-.921.922a.385.385 0 0 0 0 .558c.082.079.16.122.28.122a.36.36 0 0 0 .278-.122L4 14.56l.922.921a.36.36 0 0 0 .277.122c.121 0 .2-.043.281-.122a.385.385 0 0 0 0-.558L4.56 14l.921-.922a.385.385 0 0 0 0-.558zm0 0"/>
</svg>
